X:4
T:Kurd Dawn
C:Original — Heifer Zephyr / MIT License
M:4/4
L:1/8
Q:1/4=80
K:Dmin
%% Original composition for D Kurd handpan
%% Character: gradual emergence, spacious, meditative
D4 A,4 | D4 F4 | A4 G4 | F8 |
A4 c4 | d4 c4 | A4 G4 | E8 |
G4 F4 | E4 D4 | A,4 c4 | D8 |
F4 A4 | c4 d4 | A4 F4 | D8 |
